X: 15
T: Tripping Up The Stairs
Z: Finnbarr
S: https://thesession.org/tunes/111#setting49503
R: jig
M: 6/8
L: 1/8
K: Dmaj
|:FAA GBB|FAd fed|cBc ABc|dfe dBA|
FAA GBB|FAd fed|cBc ABc|dfe d3:|
|:dBB fBB|dcd fed|cAA eAA|cec edc|
dBB fBB|dcd fed|cBc ABc|dfe d3:|

